svgs/solid/memo-pad.svg

<svg xmlns="http://www.w3.org/2000/svg" viewBox="0 0 448 512"><!--! Font Awesome Pro 6.1.1 by @fontawesome - https://fontawesome.com License - https://fontawesome.com/license (Commercial License) Copyright 2022 Fonticons, Inc. --><path d="M0 448c0 35.35 28.65 64 64 64h320c35.35 0 64-28.65 64-64V128H0V448zM112 208h224C344.8 208 352 215.2 352 224c0 8.836-7.164 16-16 16h-224C103.2 240 96 232.8 96 224C96 215.2 103.2 208 112 208zM112 304h224c8.836 0 16 7.162 16 16c0 8.836-7.164 16-16 16h-224C103.2 336 96 328.8 96 320C96 311.2 103.2 304 112 304zM112 400h96c8.836 0 16 7.162 16 16c0 8.836-7.164 16-16 16h-96C103.2 432 96 424.8 96 416C96 407.2 103.2 400 112 400zM384 0H64C28.65 0 0 28.65 0 64v32h448V64C448 28.65 419.3 0 384 0z"/></svg>

<svg xmlns="http://www.w3.org/2000/svg" viewBox="0 0 448 512"><!--! Font Awesome Pro 6.4.2 by @fontawesome - https://fontawesome.com License - https://fontawesome.com/license (Commercial License) Copyright 2023 Fonticons, Inc. --><path d="M0 64V96H448V64c0-35.3-28.7-64-64-64H64C28.7 0 0 28.7 0 64zm0 64V448c0 35.3 28.7 64 64 64H384c35.3 0 64-28.7 64-64V128H0zm96 96c0-8.8 7.2-16 16-16H336c8.8 0 16 7.2 16 16s-7.2 16-16 16H112c-8.8 0-16-7.2-16-16zm0 96c0-8.8 7.2-16 16-16H336c8.8 0 16 7.2 16 16s-7.2 16-16 16H112c-8.8 0-16-7.2-16-16zm0 96c0-8.8 7.2-16 16-16h96c8.8 0 16 7.2 16 16s-7.2 16-16 16H112c-8.8 0-16-7.2-16-16z"/></svg>
